X: 100366
M: C|
L: 1/8
K: Bb
"^*"uf |\
vb<uf (uf>g) f2 (de/f/) | (g>B) (f>B) A<cc>a |\
vb<uf (uf>g) f2 (d>B) | (A/B/c) (A>G) F<BB :|
|: (ud/c/) |\
(B>d)(G>B) (F>B)(D>c) | (B/c/d) (c>B) vA<uc (ucd/c/) |\


